Origami/48x48/apps/firewall-config.svg

<svg width="48" height="48" version="1" xmlns="http://www.w3.org/2000/svg">
 <path d="m9 6c-2.1814055 0-4 1.8185945-4 4v6c0 1.205342 0.5843253 2.261795 1.4492188 3-0.8648935 0.738205-1.4492188 1.794658-1.4492188 3v6c0 1.205342 0.5843253 2.261795 1.4492188 3-0.8648935 0.738205-1.4492188 1.794658-1.4492188 3v6c0 2.181406 1.8185945 4 4 4h12c1.205342 0 2.261795-0.584325 3-1.449219 0.738205 0.864894 1.794658 1.449219 3 1.449219h12c2.181406 0 4-1.818594 4-4v-6c0-1.205342-0.584325-2.261795-1.449219-3 0.864894-0.738205 1.449219-1.794658 1.449219-3v-6c0-1.205342-0.584325-2.261795-1.449219-3 0.864894-0.738205 1.449219-1.794658 1.449219-3v-6c0-2.1814055-1.818594-4-4-4h-12c-1.205342 0-2.261795 0.5843253-3 1.4492188-0.738205-0.8648935-1.794658-1.4492188-3-1.4492188z" style="opacity:.2"/>
 <path d="m9 5c-2.1814055 0-4 1.8185945-4 4v6c0 1.205342 0.5843253 2.261795 1.4492188 3-0.8648935 0.738205-1.4492188 1.794658-1.4492188 3v6c0 1.205342 0.5843253 2.261795 1.4492188 3-0.8648935 0.738205-1.4492188 1.794658-1.4492188 3v6c0 2.181406 1.8185945 4 4 4h12c1.205342 0 2.261795-0.584325 3-1.449219 0.738205 0.864894 1.794658 1.449219 3 1.449219h12c2.181406 0 4-1.818594 4-4v-6c0-1.205342-0.584325-2.261795-1.449219-3 0.864894-0.738205 1.449219-1.794658 1.449219-3v-6c0-1.205342-0.584325-2.261795-1.449219-3 0.864894-0.738205 1.449219-1.794658 1.449219-3v-6c0-2.1814055-1.818594-4-4-4h-12c-1.205342 0-2.261795 0.5843253-3 1.4492188-0.738205-0.8648935-1.794658-1.4492188-3-1.4492188z" style="fill:#4f4f4f"/>
 <path d="m9 8c-1.108 0-2 0.892-2 2v6c0 1.108 0.892 2 2 2h12c1.108 0 2-0.892 2-2v-6c0-1.108-0.892-2-2-2h-12zm18 0c-1.108 0-2 0.892-2 2v6c0 1.108 0.892 2 2 2h12c1.108 0 2-0.892 2-2v-6c0-1.108-0.892-2-2-2h-12zm-18 12c-1.108 0-2 0.892-2 2v6c0 1.108 0.892 2 2 2h4c1.108 0 2-0.892 2-2v-6c0-1.108-0.892-2-2-2h-4zm9.75 0c-0.9695 0-1.75 0.892-1.75 2v6c0 1.108 0.7805 2 1.75 2h10.5c0.9695 0 1.75-0.892 1.75-2v-6c0-1.108-0.7805-2-1.75-2h-10.5zm16.25 0c-1.108 0-2 0.892-2 2v6c0 1.108 0.892 2 2 2h4c1.108 0 2-0.892 2-2v-6c0-1.108-0.892-2-2-2h-4zm-26 12c-1.108 0-2 0.892-2 2v6c0 1.108 0.892 2 2 2h12c1.108 0 2-0.892 2-2v-6c0-1.108-0.892-2-2-2h-12zm18 0c-1.108 0-2 0.892-2 2v6c0 1.108 0.892 2 2 2h12c1.108 0 2-0.892 2-2v-6c0-1.108-0.892-2-2-2h-12z" style="opacity:.2"/>
 <path d="m9 7c-1.108 0-2 0.892-2 2v6c0 1.108 0.892 2 2 2h12c1.108 0 2-0.892 2-2v-6c0-1.108-0.892-2-2-2h-12zm18 0c-1.108 0-2 0.892-2 2v6c0 1.108 0.892 2 2 2h12c1.108 0 2-0.892 2-2v-6c0-1.108-0.892-2-2-2h-12zm-18 12c-1.108 0-2 0.892-2 2v6c0 1.108 0.892 2 2 2h4c1.108 0 2-0.892 2-2v-6c0-1.108-0.892-2-2-2h-4zm9.75 0c-0.9695 0-1.75 0.892-1.75 2v6c0 1.108 0.7805 2 1.75 2h10.5c0.9695 0 1.75-0.892 1.75-2v-6c0-1.108-0.7805-2-1.75-2h-10.5zm16.25 0c-1.108 0-2 0.892-2 2v6c0 1.108 0.892 2 2 2h4c1.108 0 2-0.892 2-2v-6c0-1.108-0.892-2-2-2h-4zm-26 12c-1.108 0-2 0.892-2 2v6c0 1.108 0.892 2 2 2h12c1.108 0 2-0.892 2-2v-6c0-1.108-0.892-2-2-2h-12zm18 0c-1.108 0-2 0.892-2 2v6c0 1.108 0.892 2 2 2h12c1.108 0 2-0.892 2-2v-6c0-1.108-0.892-2-2-2h-12z" style="fill:#f45c49"/>
 <path d="m9 5c-2.1814055 0-4 1.8185945-4 4v1c0-2.1814055 1.8185945-4 4-4h12c1.205342 0 2.261795 0.5843253 3 1.4492188 0.738205-0.8648936 1.794658-1.4492188 3-1.4492188h12c2.181406 0 4 1.8185945 4 4v-1c0-2.1814055-1.818594-4-4-4h-12c-1.205342 0-2.261795 0.5843252-3 1.4492188-0.738205-0.8648935-1.794658-1.4492188-3-1.4492188h-12zm-3.0351562 13.5c-0.5865751 0.685135-0.9648438 1.541204-0.9648438 2.5v1c0-1.205342 0.5843253-2.261795 1.4492188-3-0.176909-0.150996-0.3335426-0.323824-0.484375-0.5zm36.070312 0c-0.150832 0.176176-0.307466 0.349004-0.484375 0.5 0.864894 0.738205 1.449219 1.794658 1.449219 3v-1c0-0.958796-0.378268-1.814865-0.964844-2.5zm-36.070312 12c-0.5865751 0.685135-0.9648438 1.541204-0.9648438 2.5v1c0-1.205342 0.5843253-2.261795 1.4492188-3-0.176909-0.150996-0.3335426-0.323824-0.484375-0.5zm36.070312 0c-0.150832 0.176176-0.307466 0.349004-0.484375 0.5 0.864894 0.738205 1.449219 1.794658 1.449219 3v-1c0-0.958796-0.378268-1.814865-0.964844-2.5z" style="fill:#ffffff;opacity:.1"/>
</svg>

<svg xmlns="http://www.w3.org/2000/svg" width="48" height="48" version="1">
 <path style="opacity:0.2" d="M 9,6 C 6.8185945,6 5,7.8185945 5,10 l 0,6 c 0,1.205342 0.5843253,2.261795 1.4492188,3 C 5.5843253,19.738205 5,20.794658 5,22 l 0,6 c 0,1.205342 0.5843253,2.261795 1.4492188,3 C 5.5843253,31.738205 5,32.794658 5,34 l 0,6 c 0,2.181406 1.8185945,4 4,4 l 12,0 c 1.205342,0 2.261795,-0.584325 3,-1.449219 C 24.738205,43.415675 25.794658,44 27,44 l 12,0 c 2.181406,0 4,-1.818594 4,-4 l 0,-6 C 43,32.794658 42.415675,31.738205 41.550781,31 42.415675,30.261795 43,29.205342 43,28 l 0,-6 C 43,20.794658 42.415675,19.738205 41.550781,19 42.415675,18.261795 43,17.205342 43,16 l 0,-6 C 43,7.8185945 41.181406,6 39,6 L 27,6 C 25.794658,6 24.738205,6.5843253 24,7.4492188 23.261795,6.5843253 22.205342,6 21,6 Z"/>
 <path style="fill:#4f4f4f" d="M 9,5 C 6.8185945,5 5,6.8185945 5,9 l 0,6 c 0,1.205342 0.5843253,2.261795 1.4492188,3 C 5.5843253,18.738205 5,19.794658 5,21 l 0,6 c 0,1.205342 0.5843253,2.261795 1.4492188,3 C 5.5843253,30.738205 5,31.794658 5,33 l 0,6 c 0,2.181406 1.8185945,4 4,4 l 12,0 c 1.205342,0 2.261795,-0.584325 3,-1.449219 C 24.738205,42.415675 25.794658,43 27,43 l 12,0 c 2.181406,0 4,-1.818594 4,-4 l 0,-6 C 43,31.794658 42.415675,30.738205 41.550781,30 42.415675,29.261795 43,28.205342 43,27 l 0,-6 C 43,19.794658 42.415675,18.738205 41.550781,18 42.415675,17.261795 43,16.205342 43,15 L 43,9 C 43,6.8185945 41.181406,5 39,5 L 27,5 C 25.794658,5 24.738205,5.5843253 24,6.4492188 23.261795,5.5843253 22.205342,5 21,5 Z"/>
 <path style="opacity:0.2" d="M 9,8 C 7.892,8 7,8.892 7,10 l 0,6 c 0,1.108 0.892,2 2,2 l 12,0 c 1.108,0 2,-0.892 2,-2 l 0,-6 C 23,8.892 22.108,8 21,8 L 9,8 Z m 18,0 c -1.108,0 -2,0.892 -2,2 l 0,6 c 0,1.108 0.892,2 2,2 l 12,0 c 1.108,0 2,-0.892 2,-2 l 0,-6 C 41,8.892 40.108,8 39,8 L 27,8 Z M 9,20 c -1.108,0 -2,0.892 -2,2 l 0,6 c 0,1.108 0.892,2 2,2 l 4,0 c 1.108,0 2,-0.892 2,-2 l 0,-6 c 0,-1.108 -0.892,-2 -2,-2 l -4,0 z m 9.75,0 C 17.7805,20 17,20.892 17,22 l 0,6 c 0,1.108 0.7805,2 1.75,2 l 10.5,0 C 30.2195,30 31,29.108 31,28 l 0,-6 c 0,-1.108 -0.7805,-2 -1.75,-2 l -10.5,0 z M 35,20 c -1.108,0 -2,0.892 -2,2 l 0,6 c 0,1.108 0.892,2 2,2 l 4,0 c 1.108,0 2,-0.892 2,-2 l 0,-6 c 0,-1.108 -0.892,-2 -2,-2 l -4,0 z M 9,32 c -1.108,0 -2,0.892 -2,2 l 0,6 c 0,1.108 0.892,2 2,2 l 12,0 c 1.108,0 2,-0.892 2,-2 l 0,-6 c 0,-1.108 -0.892,-2 -2,-2 L 9,32 Z m 18,0 c -1.108,0 -2,0.892 -2,2 l 0,6 c 0,1.108 0.892,2 2,2 l 12,0 c 1.108,0 2,-0.892 2,-2 l 0,-6 c 0,-1.108 -0.892,-2 -2,-2 l -12,0 z"/>
 <path style="fill:#f45c49" d="M 9,7 C 7.892,7 7,7.892 7,9 l 0,6 c 0,1.108 0.892,2 2,2 l 12,0 c 1.108,0 2,-0.892 2,-2 L 23,9 C 23,7.892 22.108,7 21,7 L 9,7 Z m 18,0 c -1.108,0 -2,0.892 -2,2 l 0,6 c 0,1.108 0.892,2 2,2 l 12,0 c 1.108,0 2,-0.892 2,-2 L 41,9 C 41,7.892 40.108,7 39,7 L 27,7 Z M 9,19 c -1.108,0 -2,0.892 -2,2 l 0,6 c 0,1.108 0.892,2 2,2 l 4,0 c 1.108,0 2,-0.892 2,-2 l 0,-6 c 0,-1.108 -0.892,-2 -2,-2 l -4,0 z m 9.75,0 C 17.7805,19 17,19.892 17,21 l 0,6 c 0,1.108 0.7805,2 1.75,2 l 10.5,0 C 30.2195,29 31,28.108 31,27 l 0,-6 c 0,-1.108 -0.7805,-2 -1.75,-2 l -10.5,0 z M 35,19 c -1.108,0 -2,0.892 -2,2 l 0,6 c 0,1.108 0.892,2 2,2 l 4,0 c 1.108,0 2,-0.892 2,-2 l 0,-6 c 0,-1.108 -0.892,-2 -2,-2 l -4,0 z M 9,31 c -1.108,0 -2,0.892 -2,2 l 0,6 c 0,1.108 0.892,2 2,2 l 12,0 c 1.108,0 2,-0.892 2,-2 l 0,-6 c 0,-1.108 -0.892,-2 -2,-2 L 9,31 Z m 18,0 c -1.108,0 -2,0.892 -2,2 l 0,6 c 0,1.108 0.892,2 2,2 l 12,0 c 1.108,0 2,-0.892 2,-2 l 0,-6 c 0,-1.108 -0.892,-2 -2,-2 l -12,0 z"/>
 <path style="opacity:0.1;fill:#ffffff" d="M 9 5 C 6.8185945 5 5 6.8185945 5 9 L 5 10 C 5 7.8185945 6.8185945 6 9 6 L 21 6 C 22.205342 6 23.261795 6.5843253 24 7.4492188 C 24.738205 6.5843252 25.794658 6 27 6 L 39 6 C 41.181406 6 43 7.8185945 43 10 L 43 9 C 43 6.8185945 41.181406 5 39 5 L 27 5 C 25.794658 5 24.738205 5.5843252 24 6.4492188 C 23.261795 5.5843253 22.205342 5 21 5 L 9 5 z M 5.9648438 18.5 C 5.3782687 19.185135 5 20.041204 5 21 L 5 22 C 5 20.794658 5.5843253 19.738205 6.4492188 19 C 6.2723098 18.849004 6.1156762 18.676176 5.9648438 18.5 z M 42.035156 18.5 C 41.884324 18.676176 41.72769 18.849004 41.550781 19 C 42.415675 19.738205 43 20.794658 43 22 L 43 21 C 43 20.041204 42.621732 19.185135 42.035156 18.5 z M 5.9648438 30.5 C 5.3782687 31.185135 5 32.041204 5 33 L 5 34 C 5 32.794658 5.5843253 31.738205 6.4492188 31 C 6.2723098 30.849004 6.1156762 30.676176 5.9648438 30.5 z M 42.035156 30.5 C 41.884324 30.676176 41.72769 30.849004 41.550781 31 C 42.415675 31.738205 43 32.794658 43 34 L 43 33 C 43 32.041204 42.621732 31.185135 42.035156 30.5 z"/>
</svg>
